!!!COM: Music21
!!!OTL: Foliada de Carril
!!!OMV: pezas_foliadas_foliada-de-carril_foliada-de-carril-partitura.musicxml
**kern
*part1
*staff1
*I"Bagpipes
*I'Bag
*clefG^2
*k[]
*M3/4
=1
!LO:TX:a:t=Presto
*MM184
!LO:TX:a:t=[quarter]=184
4r
8ggL
8aaJ
8ggL
8ffJ
=||
4ee
8eeL
8ffJ
[4gg
=
4gg]
8aaL
8ggJ
8ffL
8eeJ
=
2gg
[4ff
=
4ff]
8ffL
8ggJ
8ffL
8eeJ
=
4dd
8ddL
8eeJ
[4ff
=
4ff]
8ggL
8ffJ
8eeL
8ddJ
=
2ff
[4ee
!!linebreak:original
=
4ee]
8ggL
8aaJ
8ggL
8ffJ
=
4ee
8eeL
8ffJ
[4gg
!!linebreak:original
=
4gg]
8cccL
8bbJ
8aaL
8ggJ
=
2bb
[4aa
=
4aa]
8bbL
8cccJ
8bbL
8aaJ
=
4gg
8aaL
8bbJ
8aaL
8ggJ
=
4ff
8ggL
8aaJ
8ggL
8ffJ
=
[2.ee
=
4ee]
8ggL
8aaJ
8ggL
8ffJ
=||
4ee
8eeL
8ffJ
[4gg
=
4gg]
8aaL
8ggJ
8ffL
8eeJ
=
2gg
[4ff
!!linebreak:original
=
4ff]
8ffL
8ggJ
8ffL
8eeJ
=
4dd
8ddL
8eeJ
[4ff
=
4ff]
8ggL
8ffJ
8eeL
8ddJ
=
2ff
[4ee
=
4ee]
8ggL
8aaJ
8ggL
8ffJ
=
4ee
8eeL
8ffJ
[4gg
!!linebreak:original
=
4gg]
8cccL
8bbJ
8aaL
8ggJ
=
2bb
[4aa
=
4aa]
8bbL
8cccJ
8bbL
8aaJ
=
4gg
8aaL
8bbJ
8aaL
8ggJ
=
4ff
8ggL
8aaJ
8ggL
8ffJ
=
[2.ee
=
2.ee]
=
4.cc
8dd
4ee
=
4ee
4ee
4ee
!!linebreak:original
=
2ff
[4ee
=
4ee]
4.gg
8ff
=
2ee
4ee
=
4ee
4.ff
8ee
=
2dd
[4cc
=
2.cc]
=
4.ee
8ff
4gg
=
4gg
4gg
4gg
=
2aa
[4gg
=
4gg]
4.bb
8aa
=
2gg
4gg
=
4gg
4.aa
8gg
!!pagebreak:original
=
2ff
[4ee
!!linebreak:original
=
2.ee]
=
4.bb
8bb
4bb
=
4bb
4bb
4aa
=
2aa
[4gg
=
2.gg]
=||
4.bb
8bb
4bb
=
4bb
4bb
4aa
=
4aa
4gg
[4bb
=
4bb]
2aa
=
4gg
4ff
[4aa
=
4aa]
2gg
=
4ff
[2ee
=
2.ee]
!!linebreak:original
=||
4.bb
8bb
4bb
=
4bb
4bb
4aa
=
4aa
4gg
[4bb
=
4bb]
2aa
=
4gg
4ff
[4aa
=
4aa]
2gg
=
4ff
[2ee
!!linebreak:original
=
2ee]
4ee
=
4ee
4ee
4ff
=
2gg
4gg
=
4gg
4ff
4ee
=
2ff
4dd
=
4dd
4dd
4ee
=
4ff
4ff
4gg
=
4ff
4ee
4dd
=
2ee
4ee
=
4ee
4ee
4ff
=
2gg
4gg
=
4gg
4.aa
8bb
!!linebreak:original
=
4aa
[2aa
=
2.aa_
!!linebreak:original
=
4aa]
4r
4aa
=
4aa
4.bb
8aa
=
4gg
4ee
4gg
=
4gg
4.aa
8gg
=
4ff
4dd
4ff
=
4ff
4.gg
8gg
=||
4ff
[2ee
=
4ee]
8ggL
8aaJ
8ggL
8ffJ
=||
4ff
[2ee
=
2.ee_
=
8ee]
8r
2r
==
*-
!!!system-decoration: s1,s2
